packages/icons/svg/Fill/trending-down.svg

<svg width="24" height="24" viewBox="0 0 24 24" fill="none" xmlns="http://www.w3.org/2000/svg">
<g id="Icon/Fill/trending-down">
<path id="Mask" fill-rule="evenodd" clip-rule="evenodd" d="M20.9999 12C20.9999 11.448 20.5529 11 19.9999 11C19.4469 11 18.9999 11.448 18.9999 12V14.297L14.7589 9.349C14.4429 8.979 13.9049 8.891 13.4849 9.143L9.21993 11.702L4.76893 6.36C4.41493 5.937 3.78593 5.877 3.35893 6.232C2.93593 6.585 2.87793 7.216 3.23093 7.64L8.23093 13.64C8.54793 14.019 9.09293 14.112 9.51493 13.857L13.7899 11.292L17.8259 16H14.9999C14.4469 16 13.9999 16.448 13.9999 17C13.9999 17.552 14.4469 18 14.9999 18H19.9999C20.1239 18 20.2469 17.973 20.3639 17.926C20.4129 17.907 20.4509 17.875 20.4959 17.85C20.5479 17.819 20.6039 17.8 20.6499 17.759C20.6599 17.751 20.6639 17.739 20.6729 17.73C20.7279 17.68 20.7659 17.619 20.8079 17.558C20.8409 17.51 20.8799 17.468 20.9029 17.416C20.9279 17.363 20.9359 17.304 20.9499 17.247C20.9689 17.177 20.9899 17.109 20.9919 17.037C20.9929 17.024 20.9999 17.013 20.9999 17V12Z" fill="#000000"/>
</g>
</svg>

<svg fill="none" height="24" viewBox="0 0 24 24" width="24" xmlns="http://www.w3.org/2000/svg"><path clip-rule="evenodd" d="m21 12c0-.552-.447-1-1-1s-1 .448-1 1v2.297l-4.241-4.948c-.316-.37-.854-.458-1.274-.206l-4.26501 2.559-4.451-5.342c-.354-.423-.983-.483-1.41-.128-.423.353-.481.984-.128 1.408l5 6c.317.379.862.472 1.284.217l4.27501-2.565 4.036 4.708h-2.826c-.553 0-1 .448-1 1s.447 1 1 1h5c.124 0 .247-.027.364-.074.049-.019.087-.051.132-.076.052-.031.108-.05.154-.091.01-.008.014-.02.023-.029.055-.05.093-.111.135-.172.033-.048.072-.09.095-.142.025-.053.033-.112.047-.169.019-.07.04-.138.042-.21.001-.013.008-.024.008-.037z" fill="#6b7280" fill-rule="evenodd"/></svg>
